icons/line/puzzle.svg

<svg width="24" height="24" viewBox="0 0 24 24" fill="none" xmlns="http://www.w3.org/2000/svg">
<path d="M16.75 6H20C20.5523 6 21 6.44772 21 7V10.25C21 10.6642 20.6642 11 20.25 11H20C18.8954 11 18 11.8954 18 13C18 14.1046 18.8954 15 20 15H20.25C20.6642 15 21 15.3358 21 15.75V20C21 20.5523 20.5523 21 20 21H16.75C16.3358 21 16 20.6642 16 20.25V20C16 18.8954 15.1046 18 14 18C12.8954 18 12 18.8954 12 20V20.25C12 20.6642 11.6642 21 11.25 21H7C6.44772 21 6 20.5523 6 20V15.75C6 15.3358 5.66421 15 5.25 15H5C3.89543 15 3 14.1046 3 13C3 11.8954 3.89543 11 5 11H5.25C5.66421 11 6 10.6642 6 10.25V7C6 6.44772 6.44772 6 7 6H11.25C11.6642 6 12 5.66421 12 5.25V5C12 3.89543 12.8954 3 14 3C15.1046 3 16 3.89543 16 5V5.25C16 5.66421 16.3358 6 16.75 6Z" stroke="currentColor" stroke-width="2" stroke-linecap="round" stroke-linejoin="round"/>
</svg>

<svg width="24" height="24" fill="none" xmlns="http://www.w3.org/2000/svg"><path d="M16.75 6H20a1 1 0 011 1v3.25a.75.75 0 01-.75.75H20a2 2 0 100 4h.25a.75.75 0 01.75.75V20a1 1 0 01-1 1h-3.25a.75.75 0 01-.75-.75V20a2 2 0 10-4 0v.25a.75.75 0 01-.75.75H7a1 1 0 01-1-1v-4.25a.75.75 0 00-.75-.75H5a2 2 0 110-4h.25a.75.75 0 00.75-.75V7a1 1 0 011-1h4.25a.75.75 0 00.75-.75V5a2 2 0 114 0v.25c0 .414.336.75.75.75z" stroke="currentColor" stroke-width="2" stroke-linecap="round" stroke-linejoin="round"/></svg>
